.local/share/icons/Gruvbox-Plus-Dark/panel/16/btsync-gui-3.svg

<svg xmlns="http://www.w3.org/2000/svg" width="16" height="16" version="1.1">
 <defs>
  <style id="current-color-scheme" type="text/css">
   .ColorScheme-Text { color:#ebdbb2; } .ColorScheme-Highlight { color:#458588; }
  </style>
 </defs>
 <path style="fill:currentColor" class="ColorScheme-Text" d="M 9.8117334,1.2385192 C 6.0777056,0.2379894 2.2390491,2.4542388 1.2385193,6.1882667 0.23798949,9.9222944 2.4542388,13.760951 6.1882667,14.761481 9.9222944,15.76201 13.760952,13.545761 14.761481,9.8117333 15.762011,6.0777054 13.545761,2.2390489 9.8117334,1.2385192 Z M 9.2940953,3.1703709 C 11.630673,3.7964548 13.1355,5.9779618 12.992233,8.3023886 l 1.062141,0.2845997 -2.708308,2.3801397 -1.155395,-3.4154157 0.788587,0.2113012 C 10.881167,6.532906 10.036518,5.4398546 8.7764573,5.1022224 8.0869341,4.9187664 7.3545989,4.9870739 6.710898,5.2948843 L 5.2483224,3.8333377 C 6.4401517,3.0442048 7.9127368,2.8028973 9.2940953,3.1703709 Z M 4.6539348,5.0328721 5.8093294,8.4482877 5.0207413,8.2369866 c 0.098091,1.2301074 0.942741,2.3231584 2.2028018,2.6607914 0.6895221,0.183456 1.4218582,0.115148 2.0655599,-0.192662 l 1.462575,1.461546 C 9.5598484,12.955795 8.0872714,13.197073 6.7059049,12.829629 4.3693268,12.203546 2.8645007,10.022038 3.0077667,7.697612 L 1.9456262,7.4130115 4.6539348,5.0328721 Z"/>
</svg>

<svg width="16" height="16" version="1.1" xmlns="http://www.w3.org/2000/svg">
  <defs>
    <style id="current-color-scheme" type="text/css">.ColorScheme-Text { color:#ebdbb2; } .ColorScheme-Highlight { color:#458588; } .ColorScheme-NeutralText { color:#fe8019; } .ColorScheme-PositiveText { color:#689d6a; } .ColorScheme-NegativeText { color:#fb4934; }</style>
  </defs>
  <path class="ColorScheme-Text" d="m9.812 1.239c-3.734-1.001-7.573 1.216-8.573 4.95-1.001 3.734 1.216 7.573 4.95 8.573 3.734 1.001 7.573-1.216 8.573-4.95 1.001-3.734-1.216-7.573-4.95-8.573zm-0.5176 1.932c2.337 0.6261 3.841 2.808 3.698 5.132l1.062 0.2846-2.708 2.38-1.155-3.415 0.7886 0.2113c-0.09809-1.23-0.9427-2.323-2.203-2.661-0.6895-0.1835-1.422-0.1151-2.066 0.1927l-1.463-1.462c1.192-0.7891 2.664-1.03 4.046-0.663zm-4.64 1.863 1.155 3.415-0.7886-0.2113c0.09809 1.23 0.9427 2.323 2.203 2.661 0.6895 0.1835 1.422 0.1151 2.066-0.1927l1.463 1.462c-1.192 0.7891-2.664 1.03-4.046 0.663-2.337-0.6261-3.841-2.808-3.698-5.132l-1.062-0.2846 2.708-2.38z" fill="currentColor"/>
</svg>
